X:1
T:Song of the Fish-Gutters
M:4/4
L:1/8
K:F
 G| GG GA EC CC| GG GA B3 G| FF FG DB, B,B,| DD DE F3| B| cc cc cC CC|\
 GF GA B2 cB| GG GG GG GA| EC CC C3||
